X:1
T:Wyndham Drovers
M:2/2
L:1/4
K:C
 G| C C E F| G G2 G/2G/2| C G _B B| G3| G| c c/2c/2 c G/2G/2| _B B G E|\
 F F _B B| G3| C| G G G G| c c c E| F F _B B| G3| G| C C C C| G G G F|\
 E C C C/2_B,/2| C3||
